icons/svgs/ticket-alt-outline.svg

<svg width="24" height="24" viewBox="0 0 24 24" fill="none" xmlns="http://www.w3.org/2000/svg">
<path d="M1.57135 12.9287L12.5708 1.92921C13.4301 1.06988 14.8898 1.10548 15.7921 2.00778L17.3646 3.58036C17.6224 3.83816 17.6826 4.24204 17.5389 4.54035C17.2529 5.18731 17.3978 5.97052 17.9134 6.48612C18.4548 7.0275 19.238 7.17236 19.8849 6.88633C20.1832 6.74269 20.5871 6.80285 20.8449 7.06065L22.3917 8.60744C23.3198 9.53552 23.3296 10.9694 22.4703 11.8287L11.4708 22.8281C10.587 23.712 9.17766 23.6777 8.24958 22.7496L6.70278 21.2028C6.44498 20.945 6.36028 20.5657 6.52846 20.2428C6.78994 19.6204 6.66964 18.8126 6.12826 18.2712C5.61266 17.7556 4.80489 17.6353 4.18249 17.8968C3.85962 18.065 3.48029 17.9803 3.22249 17.7225L1.64992 16.1499C0.747618 15.2476 0.687465 13.8125 1.57135 12.9287ZM2.82843 14.9714L3.98852 16.1315C5.11425 15.8823 6.40447 16.1904 7.30677 17.0927C8.23485 18.0208 8.54298 19.311 8.29377 20.4368L9.42809 21.5711C9.66011 21.8031 10.0124 21.8117 10.2334 21.5907L21.2328 10.5913C21.4293 10.3949 21.4452 10.018 21.2132 9.78595L20.0789 8.65164C18.9286 8.9254 17.6629 8.59271 16.7349 7.66463C15.8326 6.76234 15.4999 5.49666 15.7736 4.34639L14.6135 3.18629C14.4073 2.98005 14.0046 2.97023 13.8082 3.16665L2.80879 14.1661C2.58781 14.3871 2.62219 14.7652 2.82843 14.9714ZM16.0081 10.8663L13.5332 8.39138L8.03352 13.8911L10.5084 16.366L16.0081 10.8663ZM6.44253 14.6571C6.00427 14.2189 5.9613 13.4884 6.40324 13.0465L12.6886 6.76111C13.106 6.34372 13.861 6.36213 14.2993 6.80039L17.5991 10.1002C18.0631 10.5643 18.0558 11.2935 17.6384 11.7109L11.353 17.9963C10.9111 18.4382 10.2064 18.421 9.74236 17.957L6.44253 14.6571Z" fill="black"/>
</svg>

<svg xmlns="http://www.w3.org/2000/svg" width="24" height="24" fill="currentColor" class="icon-ticket-alt-outline" viewBox="0 0 24 24">
  <mask id="a" width="24" height="23" x="0" y="1" maskUnits="userSpaceOnUse" style="mask-type:alpha">
    <path d="m1.571 12.929 11-11c.86-.86 2.319-.824 3.221.079l1.573 1.572a.86.86 0 0 1 .174.96 1.76 1.76 0 0 0 .374 1.946c.542.542 1.325.686 1.972.4a.86.86 0 0 1 .96.175l1.547 1.546c.928.929.938 2.362.078 3.222l-11 11c-.883.883-2.292.849-3.22-.08l-1.547-1.546c-.258-.258-.343-.637-.175-.96a1.83 1.83 0 0 0-.4-1.972c-.515-.515-1.323-.636-1.946-.374-.322.168-.702.083-.96-.174L1.65 16.15c-.902-.902-.963-2.337-.079-3.221m1.257 2.042 1.16 1.16a3.62 3.62 0 0 1 3.319.962 3.64 3.64 0 0 1 .987 3.344l1.134 1.134c.232.232.584.24.805.02l11-11c.196-.196.212-.573-.02-.805L20.08 8.652c-1.15.273-2.416-.06-3.344-.987a3.54 3.54 0 0 1-.961-3.319l-1.16-1.16c-.207-.206-.61-.216-.806-.02l-11 11c-.22.221-.186.6.02.805m13.18-4.105-2.475-2.475-5.5 5.5 2.475 2.475zm-9.565 3.791c-.439-.438-.482-1.169-.04-1.61L12.69 6.76c.417-.417 1.172-.399 1.61.04l3.3 3.3c.464.463.457 1.192.04 1.61l-6.286 6.285c-.442.442-1.147.425-1.61-.039z"/>
  </mask>
  <g mask="url(#a)">
    <path d="M0 0h24v24H0z"/>
  </g>
</svg>
